!!!COM: Beethoven
!!!OTL: Zehn Variationen uber "la stessa, la stessissima" aus "Falstaff" von A. Salieri
!!!Variation: Variation 3 a
**function	**harm	**kern	**kern
*	*	*clefF4	*clefG2
*	*	*k[b-e-]	*k[b-e-]
*M4/4	*M4/4	*M4/4	*M4/4
*B-:	*B-:	*B-:	*B-:
=54	=54	=54	=54
1T	1I	(8BB-	4r
.	.	4B-	.
.	.	.	4d 4f 4b-
.	.	4F	.
.	.	.	4d 4f 4b-
.	.	4D	.
.	.	.	4d 4f 4b-
.	.	[8BB-)	.
=55	=55	=55	=55
1T	1V7	(8BB-]	4e- 4f 4b
.	.	4AA	.
.	.	.	4e- 4f 4cc
.	.	4GG	.
.	.	.	4e- 4f 4cc
.	.	4FF	.
.	.	.	4e- 4f 4cc
.	.	[8GG)	.
=56	=56	=56	=56
1T	1V7	(8GG]	4e- 4f 4cc
.	.	4AA	.
.	.	.	4e- 4f 4a 4cc
.	.	4FF	.
.	.	.	4e- 4f 4a 4cc
.	.	4F	.
.	.	.	4f 4a 4cc
.	.	[8E-)	.
=57	=57	=57	=57
1T	1I	8E-]	4f 4a 4cc#
.	.	4D	.
.	.	.	4f 4b- 4dd
.	.	4C	.
.	.	.	4f 4b- 4dd
.	.	4BB-	.
.	.	.	4f 4b- 4dd
.	.	[8AA-	.
=58	=58	=58	=58
1T	1IV	8AA-]	4g 4b- 4ee-
.	.	4GG	.
.	.	.	4ee- 4gg
.	.	4FF	.
.	.	.	4ee- 4gg
.	.	4EE-	.
.	.	.	4ee- 4gg
.	.	[8GG	.
=59	=59	=59	=59
1T	1I	8GG]	4ee- 4gg
.	.	4AA	.
.	.	.	4dd 4ff
.	.	4BB-	.
.	.	.	4cc 4ee-
.	.	4C	.
.	.	.	4b- 4dd
.	.	[8D	.
=60	=60	=60	=60
2P	2V7b/V	8D]	4b- 4cc
.	.	4E-	.
.	.	.	4b- 4cc
.	.	4E	.
4P	4V	.	4a 4cc
.	.	4F	.
4P	4Ic	.	4b- 4dd
.	.	[8E	.
=61	=61	=61	=61
1D	1V7	8E]	4a 4cc
.	.	4F	.
.	.	.	4f
.	.	4F	.
.	.	.	4a
.	.	4C	.
.	.	.	4cc
.	.	[8AA	.
*-	*-	*-	*-
